; generated by PrusaSlicer 2.3.3+win64 on 2021-11-22 at 16:06:52 UTC

; 

; external perimeters extrusion width = 0.45mm
; perimeters extrusion width = 0.45mm
; infill extrusion width = 0.45mm
; solid infill extrusion width = 0.45mm
; top infill extrusion width = 0.40mm
; support material extrusion width = 0.35mm
; first layer extrusion width = 0.42mm

M73 P0 R129
M73 Q0 S133
M201 X1000 Y1000 Z200 E5000 ; sets maximum accelerations, mm/sec^2
M203 X200 Y200 Z12 E120 ; sets maximum feedrates, mm/sec
M204 P1250 R1250 T1250 ; sets acceleration (P, T) and retract acceleration (R), mm/sec^2
M205 X8.00 Y8.00 Z0.40 E4.50 ; sets the jerk limits, mm/sec
M205 S0 T0 ; sets the minimum extruding and travel feed rate, mm/sec
M107
;TYPE:Custom
M862.3 P "MK3" ; printer model check
M862.1 P0.4 ; nozzle diameter check
M115 U3.10.0 ; tell printer latest fw version
G90 ; use absolute coordinates
M83 ; extruder relative mode
M104 S215 ; set extruder temp
M140 S60 ; set bed temp
M190 S60 ; wait for bed temp
M109 S215 ; wait for extruder temp
G28 W ; home all without mesh bed level
G80 ; mesh bed leveling
G1 Y-3.0 F1000.0 ; go outside print area
G92 E0.0
G1 X60.0 E9.0 F1000.0 ; intro line
G1 X100.0 E12.5 F1000.0 ; intro line
G92 E0.0
M221 S95

; Don't change E values below. Excessive value can damage the printer.

M907 E538 ; set extruder motor current
G21 ; set units to millimeters
G90 ; use absolute coordinates
M83 ; use relative distances for extrusion
M900 K0.05 ; Filament gcode LA 1.5
M900 K30 ; Filament gcode LA 1.0
;LAYER_CHANGE
;Z:0.2
;HEIGHT:0.2
;BEFORE_LAYER_CHANGE
G92 E0.0
;0.2


M73 P0 R128
G1 E-0.80000 F2100.000
G1 Z0.400 F10800.000
;AFTER_LAYER_CHANGE
;0.2
G1 X76.241 Y52.979
G1 Z0.200
G1 E0.80000 F2100.000
M204 S1000
;TYPE:Skirt
;WIDTH:0.42
G1 F1200.000
G1 X76.615 Y52.524 E0.01846
G1 X77.093 Y52.174 E0.01858
G1 X77.639 Y51.953 E0.01846
G1 X78.222 Y51.873 E0.01846
G1 X171.754 Y51.873 E2.93262
G1 X172.631 Y52.042 E0.02802
G1 X173.384 Y52.524 E0.02802
G1 X173.906 Y53.249 E0.02802
G1 X174.123 Y54.119 E0.02813
G1 X174.109 Y78.005 E0.74892
G1 X173.939 Y79.734 E0.05446
G1 X173.427 Y82.013 E0.07325
G1 X172.511 Y84.388 E0.07980
G1 X150.388 Y127.954 E1.53201
G1 X140.178 Y142.784 E0.56454
G1 X138.128 Y145.491 E0.10646
G1 X136.922 Y146.862 E0.05724
G1 X135.654 Y148.159 E0.05688
G1 X133.089 Y150.421 E0.10723
G1 X119.569 Y161.084 E0.53989
G1 X118.928 Y161.399 E0.02237
G1 X118.220 Y161.509 E0.02249
G1 X103.826 Y161.508 E0.45129
M73 Q0 S132
G1 X103.196 Y161.407 E0.02000
G1 X102.613 Y161.141 E0.02012
G1 X87.833 Y149.349 E0.59283
G1 X86.464 Y148.079 E0.05853
G1 X84.146 Y145.580 E0.10687
G1 X81.993 Y142.743 E0.11168
G1 X80.135 Y139.695 E0.11191
G1 X78.663 Y136.638 E0.10640
G1 X78.017 Y135.000 E0.05519
G1 X76.956 Y131.569 E0.11262
G1 X76.560 Y129.822 E0.05616
G1 X76.055 Y126.466 E0.10640
G1 X75.873 Y122.921 E0.11130
G1 X75.873 Y54.239 E2.15349
G1 X75.968 Y53.585 E0.02071
G1 X76.216 Y53.034 E0.01895
; printing object pp_basis.obj id:0 copy 0
;WIPE_START
G1 F8640.000
G1 X76.615 Y52.524 E-0.14939
G1 X77.093 Y52.174 E-0.13685
G1 X77.639 Y51.953 E-0.13597
G1 X78.222 Y51.873 E-0.13597
G1 X79.096 Y51.873 E-0.20181
;WIPE_END
G1 E-0.04000 F2100.000
G1 Z0.600 F10800.000
G1 X144.608 Y126.682
G1 Z0.200
G1 E0.80000 F2100.000
;TYPE:Support material
G1 F1200.000
G1 X144.608 Y102.529 E0.75732
G1 X144.718 Y102.030 E0.01602
G1 X145.362 Y102.030 E0.02021
G1 X145.362 Y126.513 E0.76765
G1 X146.116 Y126.513 E0.02365
G1 X146.116 Y102.030 E0.76765
G1 X146.871 Y102.030 E0.02365
G1 X146.871 Y126.513 E0.76765
G1 X147.625 Y126.513 E0.02365
G1 X147.625 Y102.030 E0.76765
G1 X148.379 Y102.030 E0.02365
G1 X148.379 Y126.682 E0.77297
;WIPE_START
G1 F8640.000
G1 X148.379 Y123.391 E-0.76000
;WIPE_END
G1 E-0.04000 F2100.000
G1 Z0.600 F10800.000
G1 X118.213 Y159.132
G1 Z0.200
G1 E0.80000 F2100.000
G1 F1200.000
G1 X118.213 Y155.388 E0.11739
G1 X117.458 Y155.540 E0.02412
G1 X117.458 Y158.962 E0.10729
G1 X116.704 Y158.962 E0.02365
G1 X116.704 Y155.684 E0.10277
G1 X115.950 Y155.798 E0.02391
G1 X115.950 Y158.962 E0.09921
G1 X115.196 Y158.962 E0.02365
G1 X115.196 Y155.910 E0.09570
G1 X114.442 Y155.985 E0.02376
G1 X114.442 Y158.962 E0.09334
G1 X113.688 Y158.962 E0.02365
G1 X113.688 Y156.061 E0.09097
G1 X112.933 Y156.103 E0.02368
G1 X112.933 Y158.962 E0.08963
G1 X112.179 Y158.962 E0.02365
G1 X112.179 Y156.141 E0.08845
G1 X111.425 Y156.154 E0.02365
G1 X111.425 Y158.962 E0.08806
G1 X110.671 Y158.962 E0.02365
G1 X110.671 Y156.154 E0.08806
G1 X109.917 Y156.136 E0.02365
G1 X109.917 Y158.962 E0.08861
G1 X109.163 Y158.962 E0.02365
G1 X109.163 Y156.098 E0.08979
G1 X108.408 Y156.050 E0.02369
G1 X108.408 Y158.962 E0.09130
G1 X107.654 Y158.962 E0.02365
G1 X107.654 Y155.975 E0.09366
G1 X106.900 Y155.896 E0.02377
G1 X106.900 Y158.962 E0.09613
G1 X106.146 Y158.962 E0.02365
G1 X106.146 Y155.782 E0.09970
G1 X105.392 Y155.669 E0.02391
G1 X105.392 Y158.962 E0.10326
G1 X104.638 Y158.962 E0.02365
G1 X104.638 Y155.519 E0.10795
G1 X103.884 Y155.367 E0.02412
G1 X103.884 Y159.132 E0.11805
;WIPE_START
G1 F8640.000
G1 X103.884 Y155.840 E-0.76000
;WIPE_END
G1 E-0.04000 F2100.000
G1 Z0.600 F10800.000
G1 X109.980 Y140.988
G1 Z0.200
G1 E0.80000 F2100.000
;TYPE:Perimeter
G1 F1200.000
G1 X109.600 Y140.826 E0.01294
G1 X109.316 Y140.662 E0.01028
G1 X109.050 Y140.471 E0.01028
G1 X108.804 Y140.254 E0.01028
G1 X108.581 Y140.013 E0.01028
G1 X108.383 Y139.752 E0.01028
G1 X108.213 Y139.472 E0.01028
G1 X108.070 Y139.177 E0.01028
G1 X107.958 Y138.869 E0.01028
G1 X107.877 Y138.551 E0.01028
G1 X107.829 Y138.228 E0.01027
G1 X107.812 Y137.904 E0.01017
G1 X107.847 Y137.418 E0.01527
G1 X107.914 Y137.089 E0.01053
G1 X108.010 Y136.775 E0.01028
G1 X108.138 Y136.473 E0.01028
G1 X108.294 Y136.186 E0.01028
G1 X108.479 Y135.915 E0.01028
G1 X108.690 Y135.664 E0.01028
G1 X108.924 Y135.435 E0.01028
G1 X109.181 Y135.230 E0.01028
G1 X109.456 Y135.053 E0.01028
G1 X109.748 Y134.903 E0.01028
G1 X110.053 Y134.783 E0.01028
G1 X110.368 Y134.695 E0.01028
G1 X110.691 Y134.638 E0.01028
G1 X111.018 Y134.613 E0.01028
G1 X111.346 Y134.621 E0.01028
G1 X111.671 Y134.662 E0.01028
G1 X111.990 Y134.735 E0.01028
G1 X112.301 Y134.839 E0.01028
G1 X112.600 Y134.974 E0.01028
G1 X112.884 Y135.138 E0.01028
G1 X113.150 Y135.329 E0.01028
G1 X113.396 Y135.546 E0.01028
G1 X113.619 Y135.787 E0.01028
G1 X113.817 Y136.048 E0.01028
G1 X113.987 Y136.328 E0.01028
G1 X114.130 Y136.623 E0.01028
G1 X114.242 Y136.931 E0.01028
G1 X114.323 Y137.249 E0.01028
G1 X114.371 Y137.572 E0.01027
G1 X114.388 Y137.896 E0.01017
G1 X114.353 Y138.382 E0.01527
G1 X114.286 Y138.711 E0.01053
G1 X114.190 Y139.025 E0.01028
G1 X114.062 Y139.327 E0.01028
G1 X113.906 Y139.614 E0.01028
G1 X113.721 Y139.885 E0.01028
G1 X113.510 Y140.136 E0.01028
G1 X113.276 Y140.365 E0.01028
G1 X113.019 Y140.570 E0.01028
G1 X112.744 Y140.747 E0.01028
G1 X112.452 Y140.897 E0.01028
G1 X112.147 Y141.017 E0.01028
G1 X111.832 Y141.105 E0.01028
G1 X111.509 Y141.162 E0.01028
G1 X111.182 Y141.187 E0.01028
G1 X110.854 Y141.179 E0.01028
G1 X110.529 Y141.138 E0.01028
G1 X110.036 Y141.007 E0.01598
G1 X110.157 Y140.649 F10800.000
;TYPE:External perimeter
G1 F1200.000
G1 X109.772 Y140.490 E0.01305
G1 X109.521 Y140.345 E0.00910
G1 X109.285 Y140.175 E0.00910
G1 X109.068 Y139.983 E0.00910
G1 X108.871 Y139.771 E0.00910
G1 X108.695 Y139.539 E0.00910
G1 X108.544 Y139.292 E0.00910
G1 X108.418 Y139.030 E0.00910
G1 X108.319 Y138.758 E0.00910
G1 X108.247 Y138.477 E0.00910
G1 X108.204 Y138.190 E0.00909
G1 X108.190 Y137.908 E0.00886
G1 X108.222 Y137.469 E0.01379
G1 X108.280 Y137.182 E0.00919
G1 X108.365 Y136.905 E0.00910
G1 X108.478 Y136.637 E0.00910
G1 X108.617 Y136.382 E0.00910
G1 X108.780 Y136.143 E0.00910
G1 X108.967 Y135.920 E0.00910
G1 X109.174 Y135.718 E0.00910
G1 X109.401 Y135.537 E0.00910
G1 X109.645 Y135.380 E0.00910
G1 X109.903 Y135.247 E0.00910
G1 X110.173 Y135.141 E0.00910
G1 X110.452 Y135.063 E0.00910
G1 X110.738 Y135.012 E0.00910
G1 X111.027 Y134.991 E0.00910
G1 X111.317 Y134.998 E0.00910
G1 X111.605 Y135.034 E0.00910
G1 X111.888 Y135.098 E0.00910
G1 X112.163 Y135.191 E0.00910
G1 X112.428 Y135.310 E0.00910
G1 X112.679 Y135.455 E0.00910
G1 X112.915 Y135.625 E0.00910
G1 X113.132 Y135.817 E0.00910
G1 X113.329 Y136.029 E0.00910
G1 X113.505 Y136.261 E0.00910
G1 X113.656 Y136.508 E0.00910
G1 X113.782 Y136.770 E0.00910
G1 X113.881 Y137.042 E0.00910
G1 X113.953 Y137.323 E0.00910
G1 X113.996 Y137.610 E0.00909
G1 X114.010 Y137.892 E0.00886
G1 X113.978 Y138.331 E0.01379
G1 X113.920 Y138.618 E0.00919
G1 X113.835 Y138.895 E0.00910
G1 X113.722 Y139.163 E0.00910
G1 X113.583 Y139.418 E0.00910
G1 X113.420 Y139.657 E0.00910
G1 X113.233 Y139.880 E0.00910
G1 X113.026 Y140.082 E0.00910
G1 X112.799 Y140.263 E0.00910
G1 X112.555 Y140.420 E0.00910
G1 X112.297 Y140.553 E0.00910
G1 X112.027 Y140.659 E0.00910
G1 X111.748 Y140.737 E0.00910
G1 X111.462 Y140.788 E0.00910
G1 X111.173 Y140.809 E0.00910
G1 X110.883 Y140.802 E0.00910
G1 X110.595 Y140.766 E0.00910
G1 X110.213 Y140.669 E0.01234
G1 X109.855 Y140.912 F10800.000
;WIPE_START
G1 F8640.000
G1 X109.772 Y140.490 E-0.10990
G1 X109.521 Y140.345 E-0.06699
G1 X109.285 Y140.175 E-0.06699
G1 X109.068 Y139.983 E-0.06699
G1 X108.871 Y139.771 E-0.06699
G1 X108.695 Y139.539 E-0.06699
G1 X108.544 Y139.292 E-0.06699
G1 X108.418 Y139.030 E-0.06699
G1 X108.319 Y138.758 E-0.06699
G1 X108.247 Y138.477 E-0.06699
G1 X108.217 Y138.275 E-0.04716
;WIPE_END
G1 E-0.04000 F2100.000
G1 Z0.600 F10800.000
G1 X79.037 Y55.037
G1 Z0.200
G1 E0.80000 F2100.000
;TYPE:Perimeter
G1 F1200.000
G1 X170.963 Y55.037 E2.88227
G1 X170.963 Y77.240 E0.69617
G1 X170.947 Y77.908 E0.02094
G1 X170.898 Y78.565 E0.02064
G1 X170.818 Y79.218 E0.02064
G1 X170.705 Y79.867 E0.02064
G1 X170.561 Y80.509 E0.02064
G1 X170.385 Y81.143 E0.02064
G1 X170.179 Y81.769 E0.02064
G1 X169.942 Y82.383 E0.02064
G1 X169.675 Y82.985 E0.02064
G1 X169.379 Y83.573 E0.02064
G1 X169.054 Y84.145 E0.02064
G1 X168.702 Y84.702 E0.02064
G1 X168.323 Y85.240 E0.02064
G1 X167.918 Y85.759 E0.02064
G1 X167.488 Y86.257 E0.02064
G1 X167.034 Y86.734 E0.02064
G1 X166.557 Y87.188 E0.02064
G1 X166.059 Y87.618 E0.02064
G1 X165.540 Y88.023 E0.02064
G1 X165.002 Y88.402 E0.02064
G1 X164.445 Y88.754 E0.02064
G1 X163.873 Y89.079 E0.02064
G1 X163.285 Y89.375 E0.02064
G1 X162.683 Y89.642 E0.02064
G1 X162.069 Y89.879 E0.02064
G1 X161.443 Y90.085 E0.02064
G1 X160.809 Y90.261 E0.02064
G1 X160.167 Y90.405 E0.02064
G1 X159.518 Y90.518 E0.02064
G1 X158.865 Y90.598 E0.02064
G1 X158.208 Y90.647 E0.02064
G1 X156.844 Y90.680 E0.04278
G1 X156.140 Y90.732 E0.02214
G1 X155.439 Y90.818 E0.02214
G1 X154.743 Y90.939 E0.02214
G1 X154.054 Y91.094 E0.02214
G1 X153.374 Y91.282 E0.02214
G1 X152.703 Y91.504 E0.02214
G1 X152.044 Y91.758 E0.02214
G1 X151.399 Y92.044 E0.02214
G1 X150.768 Y92.362 E0.02214
G1 X150.153 Y92.710 E0.02214
G1 X149.557 Y93.087 E0.02215
G1 X148.973 Y93.499 E0.02240
G1 X148.423 Y93.928 E0.02188
G1 X147.888 Y94.390 E0.02214
G1 X147.377 Y94.877 E0.02214
G1 X146.890 Y95.388 E0.02214
G1 X146.428 Y95.923 E0.02214
G1 X145.994 Y96.479 E0.02214
G1 X145.587 Y97.057 E0.02214
G1 X145.210 Y97.653 E0.02214
G1 X144.862 Y98.268 E0.02214
G1 X144.544 Y98.899 E0.02214
G1 X144.258 Y99.544 E0.02215
G1 X144.001 Y100.211 E0.02240
G1 X143.782 Y100.874 E0.02188
G1 X143.594 Y101.554 E0.02214
G1 X143.439 Y102.243 E0.02214
G1 X143.318 Y102.939 E0.02214
G1 X143.232 Y103.640 E0.02214
G1 X143.180 Y104.344 E0.02214
G1 X143.163 Y105.040 E0.02184
G1 X143.163 Y122.890 E0.55967
G1 X143.123 Y124.498 E0.05043
G1 X143.003 Y126.092 E0.05013
G1 X142.805 Y127.679 E0.05013
G1 X142.527 Y129.253 E0.05013
G1 X142.171 Y130.812 E0.05013
G1 X141.738 Y132.351 E0.05013
G1 X141.229 Y133.866 E0.05013
G1 X140.645 Y135.354 E0.05013
G1 X139.987 Y136.811 E0.05013
G1 X139.258 Y138.234 E0.05013
G1 X138.459 Y139.619 E0.05013
G1 X137.591 Y140.962 E0.05013
G1 X136.658 Y142.260 E0.05013
G1 X135.661 Y143.509 E0.05013
G1 X134.604 Y144.708 E0.05013
G1 X133.487 Y145.853 E0.05013
G1 X132.315 Y146.940 E0.05013
G1 X131.091 Y147.968 E0.05013
G1 X129.816 Y148.933 E0.05013
G1 X128.495 Y149.833 E0.05013
G1 X127.131 Y150.667 E0.05013
G1 X125.727 Y151.432 E0.05013
G1 X124.287 Y152.125 E0.05013
G1 X122.814 Y152.746 E0.05013
G1 X121.312 Y153.293 E0.05013
G1 X119.784 Y153.764 E0.05013
G1 X118.236 Y154.159 E0.05009
G1 X116.659 Y154.477 E0.05044
G1 X115.087 Y154.714 E0.04984
G1 X113.504 Y154.872 E0.04988
G1 X111.910 Y154.952 E0.05006
G1 X110.290 Y154.952 E0.05077
G1 X108.696 Y154.872 E0.05006
G1 X107.113 Y154.714 E0.04987
G1 X105.542 Y154.477 E0.04983
G1 X103.964 Y154.159 E0.05046
G1 X102.416 Y153.764 E0.05009
G1 X100.888 Y153.293 E0.05013
G1 X99.386 Y152.746 E0.05013
G1 X97.913 Y152.125 E0.05013
G1 X96.473 Y151.432 E0.05013
G1 X95.069 Y150.667 E0.05013
G1 X93.705 Y149.833 E0.05013
G1 X92.384 Y148.933 E0.05013
G1 X91.109 Y147.968 E0.05013
G1 X89.885 Y146.940 E0.05013
G1 X88.713 Y145.853 E0.05013
G1 X87.596 Y144.708 E0.05013
G1 X86.539 Y143.509 E0.05013
G1 X85.542 Y142.260 E0.05013
G1 X84.609 Y140.962 E0.05013
G1 X83.741 Y139.619 E0.05013
G1 X82.942 Y138.234 E0.05013
G1 X82.213 Y136.811 E0.05013
G1 X81.555 Y135.354 E0.05013
G1 X80.971 Y133.866 E0.05013
G1 X80.462 Y132.351 E0.05013
G1 X80.029 Y130.812 E0.05013
G1 X79.673 Y129.253 E0.05013
G1 X79.395 Y127.679 E0.05013
G1 X79.197 Y126.092 E0.05013
G1 X79.077 Y124.498 E0.05013
G1 X79.037 Y122.890 E0.05043
G1 X79.037 Y55.097 E2.12561
G1 X78.660 Y54.660 F10800.000
;TYPE:External perimeter
G1 F1200.000
G1 X171.340 Y54.660 E2.90592
M73 P0 R127
G1 X171.340 Y77.245 E0.70814
G1 X171.323 Y77.927 E0.02138
G1 X171.273 Y78.602 E0.02122
G1 X171.191 Y79.273 E0.02122
G1 X171.075 Y79.940 E0.02122
G1 X170.927 Y80.601 E0.02122
G1 X170.746 Y81.253 E0.02122
G1 X170.534 Y81.896 E0.02122
G1 X170.290 Y82.527 E0.02122
G1 X170.016 Y83.146 E0.02122
G1 X169.712 Y83.751 E0.02122
G1 X169.378 Y84.339 E0.02122
G1 X169.016 Y84.911 E0.02122
G1 X168.626 Y85.465 E0.02122
G1 X168.210 Y85.998 E0.02122
G1 X167.768 Y86.511 E0.02122
G1 X167.301 Y87.001 E0.02122
G1 X166.811 Y87.468 E0.02122
G1 X166.298 Y87.910 E0.02122
G1 X165.765 Y88.326 E0.02122
G1 X165.211 Y88.716 E0.02122
G1 X164.639 Y89.078 E0.02122
G1 X164.051 Y89.412 E0.02122
G1 X163.446 Y89.716 E0.02122
G1 X162.827 Y89.990 E0.02122
G1 X162.196 Y90.234 E0.02122
G1 X161.553 Y90.446 E0.02122
G1 X160.901 Y90.627 E0.02122
G1 X160.240 Y90.775 E0.02122
G1 X159.573 Y90.891 E0.02122
G1 X158.902 Y90.973 E0.02122
G1 X158.227 Y91.023 E0.02122
G1 X156.863 Y91.057 E0.04278
G1 X156.177 Y91.107 E0.02156
G1 X155.494 Y91.192 E0.02156
G1 X154.817 Y91.309 E0.02156
G1 X154.146 Y91.460 E0.02156
G1 X153.483 Y91.643 E0.02156
G1 X152.830 Y91.859 E0.02156
G1 X152.189 Y92.106 E0.02156
G1 X151.560 Y92.385 E0.02156
G1 X150.946 Y92.694 E0.02156
G1 X150.347 Y93.033 E0.02156
G1 X149.766 Y93.401 E0.02156
G1 X149.198 Y93.802 E0.02182
G1 X148.662 Y94.220 E0.02130
G1 X148.141 Y94.669 E0.02156
G1 X147.643 Y95.143 E0.02156
G1 X147.169 Y95.641 E0.02156
G1 X146.720 Y96.162 E0.02156
G1 X146.297 Y96.704 E0.02156
G1 X145.901 Y97.266 E0.02156
G1 X145.533 Y97.847 E0.02156
G1 X145.194 Y98.446 E0.02156
G1 X144.885 Y99.060 E0.02156
G1 X144.606 Y99.689 E0.02156
G1 X144.356 Y100.338 E0.02182
G1 X144.143 Y100.983 E0.02130
G1 X143.960 Y101.646 E0.02156
G1 X143.809 Y102.317 E0.02156
G1 X143.692 Y102.994 E0.02156
G1 X143.607 Y103.677 E0.02156
G1 X143.557 Y104.363 E0.02156
G1 X143.540 Y105.045 E0.02140
G1 X143.540 Y122.895 E0.55967
G1 X143.500 Y124.517 E0.05088
G1 X143.379 Y126.130 E0.05072
G1 X143.178 Y127.735 E0.05072
G1 X142.897 Y129.328 E0.05072
G1 X142.537 Y130.905 E0.05072
G1 X142.099 Y132.462 E0.05072
G1 X141.584 Y133.995 E0.05072
G1 X140.993 Y135.501 E0.05072
G1 X140.327 Y136.975 E0.05072
G1 X139.589 Y138.414 E0.05072
G1 X138.781 Y139.815 E0.05072
G1 X137.903 Y141.174 E0.05072
G1 X136.959 Y142.487 E0.05072
G1 X135.950 Y143.752 E0.05072
G1 X134.880 Y144.965 E0.05072
G1 X133.751 Y146.123 E0.05072
G1 X132.565 Y147.223 E0.05072
G1 X131.326 Y148.263 E0.05072
G1 X130.037 Y149.239 E0.05072
G1 X128.700 Y150.150 E0.05072
G1 X127.320 Y150.994 E0.05072
G1 X125.899 Y151.767 E0.05072
G1 X124.442 Y152.469 E0.05072
G1 X122.952 Y153.097 E0.05072
