; generated by PrusaSlicer 2.3.3+win64 on 2022-04-07 at 11:25:32 UTC

; 

; external perimeters extrusion width = 0.45mm
; perimeters extrusion width = 0.45mm
; infill extrusion width = 0.45mm
; solid infill extrusion width = 0.45mm
; top infill extrusion width = 0.40mm
; first layer extrusion width = 0.42mm

M73 P0 R99
M73 Q0 S101
M201 X1000 Y1000 Z200 E5000 ; sets maximum accelerations, mm/sec^2
M203 X200 Y200 Z12 E120 ; sets maximum feedrates, mm/sec
M204 P1250 R1250 T1250 ; sets acceleration (P, T) and retract acceleration (R), mm/sec^2
M205 X8.00 Y8.00 Z0.40 E4.50 ; sets the jerk limits, mm/sec
M205 S0 T0 ; sets the minimum extruding and travel feed rate, mm/sec
M107
;TYPE:Custom
M862.3 P "MK3" ; printer model check
M862.1 P0.4 ; nozzle diameter check
M115 U3.10.0 ; tell printer latest fw version
G90 ; use absolute coordinates
M83 ; extruder relative mode
M104 S215 ; set extruder temp
M140 S60 ; set bed temp
M190 S60 ; wait for bed temp
M109 S215 ; wait for extruder temp
G28 W ; home all without mesh bed level
G80 ; mesh bed leveling
G1 Y-3.0 F1000.0 ; go outside print area
G92 E0.0
G1 X60.0 E9.0 F1000.0 ; intro line
G1 X100.0 E12.5 F1000.0 ; intro line
G92 E0.0
M221 S95

; Don't change E values below. Excessive value can damage the printer.

M907 E538 ; set extruder motor current
G21 ; set units to millimeters
G90 ; use absolute coordinates
M83 ; use relative distances for extrusion
M900 K0.05 ; Filament gcode LA 1.5
M900 K30 ; Filament gcode LA 1.0
;LAYER_CHANGE
;Z:0.2
;HEIGHT:0.2
;BEFORE_LAYER_CHANGE
G92 E0.0
;0.2


G1 E-0.80000 F2100.000
G1 Z0.400 F10800.000
;AFTER_LAYER_CHANGE
;0.2
G1 X77.395 Y37.441
G1 Z0.200
G1 E0.80000 F2100.000
M204 S1000
;TYPE:Skirt
;WIDTH:0.42
G1 F1200.000
G1 X77.646 Y36.859 E0.01989
G1 X78.043 Y36.364 E0.01989
G1 X78.556 Y35.992 E0.01989
G1 X79.150 Y35.768 E0.01989
G1 X101.532 Y31.893 E0.71221
M73 P0 R98
G1 X136.757 Y31.882 E1.10445
G1 X171.495 Y35.728 E1.09584
G1 X172.395 Y36.040 E0.02989
G1 X173.101 Y36.681 E0.02989
G1 X173.420 Y37.281 E0.02130
G1 X173.556 Y37.947 E0.02130
G1 X174.127 Y54.237 E0.51106
G1 X174.109 Y78.010 E0.74541
G1 X173.939 Y79.739 E0.05446
G1 X173.426 Y82.022 E0.07337
G1 X172.866 Y83.598 E0.05244
G1 X172.161 Y85.085 E0.05160
G1 X142.020 Y139.783 E1.95815
G1 X141.127 Y141.324 E0.05584
G1 X139.214 Y144.131 E0.10652
G1 X136.896 Y146.895 E0.11309
G1 X134.453 Y149.278 E0.10701
G1 X133.065 Y150.445 E0.05686
G1 X131.615 Y151.541 E0.05700
G1 X128.764 Y153.382 E0.10640
G1 X125.534 Y155.038 E0.11382
G1 X122.375 Y156.278 E0.10640
G1 X120.639 Y156.816 E0.05698
G1 X118.881 Y157.261 E0.05688
G1 X115.482 Y157.859 E0.10819
G1 X113.673 Y158.037 E0.05700
G1 X110.281 Y158.122 E0.10640
G1 X106.665 Y157.851 E0.11369
G1 X103.319 Y157.261 E0.10653
G1 X101.557 Y156.815 E0.05698
G1 X99.825 Y156.278 E0.05688
G1 X96.614 Y155.016 E0.10819
G1 X94.977 Y154.225 E0.05700
G1 X92.038 Y152.528 E0.10640
G1 X89.090 Y150.409 E0.11382
G1 X86.546 Y148.164 E0.10640
G1 X85.276 Y146.864 E0.05698
G1 X84.077 Y145.503 E0.05688
G1 X82.026 Y142.795 E0.10652
G1 X80.135 Y139.700 E0.11370
G1 X78.663 Y136.643 E0.10640
G1 X77.997 Y134.952 E0.05698
G1 X77.421 Y133.232 E0.05688
G1 X76.572 Y129.887 E0.10819
G1 X76.048 Y126.415 E0.11011
G1 X75.873 Y122.926 E0.10952
G1 X75.873 Y54.236 E2.15373
G1 X77.389 Y37.501 E0.52687
;WIPE_START
G1 F8640.000
G1 X77.646 Y36.859 E-0.15966
G1 X78.043 Y36.364 E-0.14644
G1 X78.556 Y35.992 E-0.14644
G1 X79.150 Y35.768 E-0.14644
G1 X79.837 Y35.649 E-0.16102
;WIPE_END
G1 E-0.04000 F2100.000
G1 Z0.600 F10800.000
G1 X91.847 Y33.378
G1 Z0.200
G1 E0.80000 F2100.000
G1 F1200.000
G1 X79.041 Y33.393 E0.40150
G1 X77.860 Y33.702 E0.03829
G1 X76.697 Y34.406 E0.04262
G1 X75.721 Y35.470 E0.04526
G1 X75.343 Y36.157 E0.02458
G1 X75.082 Y36.882 E0.02417
G1 X74.975 Y50.900 E0.43956
G1 X74.383 Y51.513 E0.02670
G1 X73.897 Y52.361 E0.03063
G1 X73.537 Y53.745 E0.04486
G1 X73.537 Y122.934 E2.16935
G1 X73.585 Y124.812 E0.05890
G1 X73.726 Y126.670 E0.05843
G1 X73.948 Y128.433 E0.05572
G1 X74.287 Y130.377 E0.06188
G1 X74.709 Y132.217 E0.05918
G1 X75.221 Y134.029 E0.05904
G1 X75.814 Y135.785 E0.05813
G1 X76.489 Y137.502 E0.05783
G1 X77.275 Y139.242 E0.05988
G1 X78.109 Y140.866 E0.05721
G1 X79.020 Y142.447 E0.05722
G1 X80.082 Y144.092 E0.06141
G1 X81.154 Y145.582 E0.05753
G1 X82.290 Y147.009 E0.05722
G1 X83.554 Y148.444 E0.05993
G1 X84.910 Y149.832 E0.06085
G1 X86.249 Y151.073 E0.05723
G1 X87.646 Y152.247 E0.05721
G1 X89.137 Y153.379 E0.05870
G1 X90.585 Y154.369 E0.05502
G1 X92.281 Y155.415 E0.06247
G1 X93.968 Y156.334 E0.06023
G1 X95.700 Y157.167 E0.06025
G1 X97.426 Y157.891 E0.05870
G1 X99.150 Y158.517 E0.05749
G1 X100.894 Y159.055 E0.05723
G1 X102.783 Y159.536 E0.06112
G1 X104.572 Y159.897 E0.05723
G1 X106.377 Y160.170 E0.05722
G1 X108.278 Y160.362 E0.05993
G1 X110.206 Y160.458 E0.06053
G1 X112.031 Y160.457 E0.05722
G1 X113.854 Y160.367 E0.05722
G1 X115.766 Y160.178 E0.06023
G1 X117.665 Y159.890 E0.06023
G1 X119.454 Y159.528 E0.05722
G1 X121.222 Y159.079 E0.05722
G1 X123.059 Y158.514 E0.06023
G1 X124.863 Y157.856 E0.06023
G1 X126.545 Y157.146 E0.05722
G1 X128.190 Y156.356 E0.05723
G1 X129.919 Y155.415 E0.06172
G1 X131.476 Y154.462 E0.05723
G1 X132.984 Y153.435 E0.05722
G1 X134.516 Y152.277 E0.06022
G1 X135.980 Y151.047 E0.05995
G1 X137.274 Y149.844 E0.05539
G1 X138.593 Y148.501 E0.05903
G1 X139.853 Y147.077 E0.05961
G1 X141.038 Y145.592 E0.05957
G1 X142.195 Y143.974 E0.06238
G1 X143.185 Y142.438 E0.05729
G1 X144.101 Y140.848 E0.05752
G1 X144.963 Y139.163 E0.05934
G1 X145.738 Y137.438 E0.05932
G1 X146.406 Y135.730 E0.05749
G1 X146.990 Y133.992 E0.05750
G1 X147.500 Y132.180 E0.05901
G1 X147.919 Y130.345 E0.05904
G1 X148.146 Y129.057 E0.04101
;WIPE_START
G1 F8640.000
G1 X147.919 Y130.345 E-0.30201
G1 X147.500 Y132.180 E-0.43475
G1 X147.473 Y132.277 E-0.02324
;WIPE_END
G1 E-0.04000 F2100.000
G1 Z0.600 F10800.000
G1 X148.310 Y127.979
G1 Z0.200
G1 E0.80000 F2100.000
G1 F1200.000
G1 X148.478 Y126.632 E0.04256
G1 X148.615 Y124.803 E0.05753
G1 X148.663 Y122.968 E0.05755
G1 X148.663 Y116.209 E0.21191
M73 Q0 S100
G1 X149.041 Y116.200 E0.01183
G1 X150.851 Y115.762 E0.05840
G1 X152.624 Y114.826 E0.06286
G1 X154.116 Y113.437 E0.06392
G1 X155.038 Y112.020 E0.05300
G1 X155.631 Y110.439 E0.05294
G1 X155.843 Y109.058 E0.04382
G1 X155.859 Y108.255 E0.02517
G1 X155.685 Y106.861 E0.04405
G1 X155.485 Y106.273 E0.01948
G1 X156.205 Y105.437 E0.03458
G1 X156.553 Y104.844 E0.02157
G1 X156.966 Y103.460 E0.04529
G1 X156.985 Y102.868 E0.01854
G1 X157.815 Y102.868 E0.02602
G1 X159.448 Y102.507 E0.05244
G1 X160.725 Y101.813 E0.04558
G1 X161.212 Y101.400 E0.02003
G1 X162.069 Y100.244 E0.04509
G1 X162.535 Y98.892 E0.04486
G1 X162.583 Y95.475 E0.10712
G1 X163.052 Y95.350 E0.01524
G1 X163.946 Y95.054 E0.02952
G1 X164.811 Y94.719 E0.02908
G1 X165.642 Y94.350 E0.02850
G1 X166.471 Y93.932 E0.02912
G1 X167.347 Y93.431 E0.03165
G1 X168.008 Y93.013 F10800.000
G1 F1200.000
G1 X168.828 Y92.439 E0.03138
G1 X169.559 Y91.867 E0.02910
G1 X170.240 Y91.279 E0.02821
G1 X170.899 Y90.653 E0.02850
G1 X171.553 Y89.968 E0.02970
G1 X172.178 Y89.244 E0.02998
G1 X172.721 Y88.550 E0.02763
G1 X173.229 Y87.830 E0.02763
G1 X173.766 Y86.990 E0.03128
G1 X174.237 Y86.159 E0.02994
G1 X174.663 Y85.310 E0.02978
G1 X175.045 Y84.442 E0.02973
G1 X175.373 Y83.584 E0.02879
G1 X175.661 Y82.704 E0.02903
G1 X175.893 Y81.866 E0.02727
G1 X176.087 Y81.009 E0.02756
G1 X176.253 Y80.066 E0.03000
G1 X176.369 Y79.128 E0.02965
G1 X176.440 Y78.188 E0.02956
G1 X176.463 Y77.308 E0.02760
G1 X176.463 Y53.733 E0.73917
G1 X176.100 Y52.360 E0.04452
G1 X175.890 Y51.972 E0.01385
G1 X175.896 Y37.576 E0.45138
G1 X175.598 Y36.352 E0.03950
G1 X175.179 Y35.516 E0.02931
G1 X173.751 Y34.089 E0.06330
G1 X172.916 Y33.670 E0.02931
G1 X171.693 Y33.371 E0.03948
G1 X151.920 Y33.371 E0.61997
;WIPE_START
G1 F8640.000
G1 X155.211 Y33.371 E-0.76000
;WIPE_END
G1 E-0.04000 F2100.000
G1 Z0.600 F10800.000
G1 X148.493 Y33.371
G1 Z0.200
G1 E0.80000 F2100.000
G1 F1200.000
G1 X141.339 Y33.371 E0.22431
G1 X141.210 Y32.852 E0.01678
G1 X141.048 Y32.547 E0.01081
G1 X140.835 Y32.144 F10800.000
G1 F1200.000
G1 X140.634 Y31.764 E0.01347
G1 X139.423 Y30.567 E0.05339
G1 X138.407 Y30.037 E0.03595
G1 X137.250 Y29.777 E0.03718
G1 X101.226 Y29.773 E1.12949
G1 X99.653 Y30.229 E0.05136
G1 X98.696 Y30.875 E0.03619
G1 X97.871 Y31.764 E0.03804
G1 X97.529 Y32.394 E0.02248
G1 X97.316 Y32.814 F10800.000
G1 F1200.000
G1 X97.162 Y33.372 E0.01815
G1 X94.072 Y33.376 E0.09690
;WIPE_START
G1 F8640.000
G1 X97.162 Y33.372 E-0.71363
G1 X97.216 Y33.178 E-0.04637
;WIPE_END
G1 E-0.04000 F2100.000
G1 Z0.600 F10800.000
G1 X91.879 Y33.755
G1 Z0.200
G1 E0.80000 F2100.000
G1 F1200.000
G1 X97.454 Y33.749 E0.17480
G1 X97.675 Y32.915 E0.02704
G1 X97.773 Y32.735 E0.00643
G1 X98.002 Y32.312 F10800.000
G1 F1200.000
G1 X98.191 Y31.966 E0.01236
G1 X98.957 Y31.148 E0.03515
G1 X99.788 Y30.582 E0.03153
G1 X101.253 Y30.150 E0.04790
G1 X137.229 Y30.154 E1.12799
G1 X138.257 Y30.384 E0.03302
G1 X139.181 Y30.857 E0.03256
G1 X140.315 Y31.967 E0.04975
G1 X140.382 Y32.094 E0.00450
G1 X140.595 Y32.497 F10800.000
G1 F1200.000
G1 X140.864 Y33.005 E0.01804
G1 X141.037 Y33.748 E0.02391
G1 X151.899 Y33.748 E0.34057
;WIPE_START
G1 F8640.000
G1 X148.607 Y33.748 E-0.76000
;WIPE_END
G1 E-0.04000 F2100.000
G1 Z0.600 F10800.000
G1 X155.325 Y33.748
G1 Z0.200
G1 E0.80000 F2100.000
G1 F1200.000
G1 X171.669 Y33.748 E0.51245
G1 X172.803 Y34.030 E0.03664
G1 X173.554 Y34.411 E0.02639
G1 X174.856 Y35.714 E0.05777
G1 X175.237 Y36.464 E0.02639
G1 X175.519 Y37.599 E0.03666
G1 X175.513 Y52.071 E0.45377
G1 X175.742 Y52.483 E0.01477
G1 X176.086 Y53.758 E0.04142
G1 X176.086 Y77.305 E0.73830
G1 X176.064 Y78.173 E0.02722
G1 X175.994 Y79.095 E0.02898
G1 X175.881 Y80.006 E0.02878
G1 X175.718 Y80.930 E0.02942
G1 X175.528 Y81.770 E0.02700
G1 X175.299 Y82.600 E0.02699
G1 X175.016 Y83.462 E0.02847
G1 X174.694 Y84.303 E0.02822
G1 X174.319 Y85.153 E0.02915
G1 X173.902 Y85.985 E0.02918
G1 X173.440 Y86.799 E0.02934
G1 X172.919 Y87.616 E0.03040
G1 X172.415 Y88.329 E0.02734
G1 X171.884 Y89.008 E0.02706
G1 X171.271 Y89.718 E0.02941
G1 X170.636 Y90.383 E0.02882
G1 X169.990 Y90.997 E0.02793
G1 X169.316 Y91.579 E0.02792
G1 X168.421 Y92.264 E0.03536
G1 X167.724 Y92.747 F10800.000
G1 F1200.000
G1 X167.072 Y93.159 E0.02418
G1 X166.297 Y93.598 E0.02792
G1 X165.476 Y94.011 E0.02883
G1 X164.662 Y94.373 E0.02792
G1 X163.823 Y94.698 E0.02821
G1 X162.939 Y94.991 E0.02919
G1 X162.209 Y95.184 E0.02371
G1 X162.168 Y98.798 E0.11330
G1 X161.722 Y100.093 E0.04296
G1 X160.924 Y101.156 E0.04167
G1 X160.527 Y101.492 E0.01632
G1 X159.340 Y102.145 E0.04247
G1 X157.755 Y102.495 E0.05090
G1 X156.611 Y102.488 E0.03585
G1 X156.596 Y103.379 E0.02796
G1 X156.215 Y104.675 E0.04234
G1 X155.908 Y105.205 E0.01920
G1 X155.057 Y106.192 E0.04088
G1 X155.314 Y106.928 E0.02445
G1 X155.482 Y108.262 E0.04215
G1 X155.468 Y109.014 E0.02359
G1 X155.271 Y110.325 E0.04157
G1 X154.692 Y111.868 E0.05165
G1 X153.813 Y113.211 E0.05033
G1 X152.386 Y114.532 E0.06097
G1 X150.697 Y115.417 E0.05979
G1 X148.977 Y115.827 E0.05545
G1 X148.286 Y115.828 E0.02166
G1 X148.286 Y122.960 E0.22364
G1 X148.239 Y124.779 E0.05704
G1 X148.102 Y126.599 E0.05724
G1 X147.871 Y128.448 E0.05842
G1 X147.786 Y128.929 E0.01531
;WIPE_START
G1 F8640.000
G1 X147.871 Y128.448 E-0.11275
G1 X148.102 Y126.599 E-0.43023
G1 X148.173 Y125.662 E-0.21702
;WIPE_END
G1 E-0.04000 F2100.000
G1 Z0.600 F10800.000
G1 X147.583 Y130.078
G1 Z0.200
G1 E0.80000 F2100.000
G1 F1200.000
G1 X147.134 Y132.092 E0.06469
G1 X146.631 Y133.876 E0.05813
G1 X146.050 Y135.606 E0.05721
M73 P1 R98
G1 X145.389 Y137.296 E0.05691
G1 X144.621 Y139.004 E0.05873
G1 X143.767 Y140.672 E0.05875
G1 X142.861 Y142.246 E0.05694
G1 X141.886 Y143.758 E0.05642
G1 X140.741 Y145.361 E0.06176
G1 X139.568 Y146.831 E0.05896
G1 X138.321 Y148.240 E0.05900
G1 X137.008 Y149.577 E0.05874
G1 X135.727 Y150.768 E0.05484
G1 X134.285 Y151.979 E0.05906
G1 X132.768 Y153.126 E0.05963
G1 X131.275 Y154.143 E0.05664
G1 X129.726 Y155.091 E0.05693
G1 X128.022 Y156.018 E0.06082
M73 Q1 S100
G1 X126.386 Y156.805 E0.05693
G1 X124.721 Y157.507 E0.05664
G1 X122.943 Y158.155 E0.05934
G1 X121.125 Y158.715 E0.05964
G1 X119.374 Y159.159 E0.05664
G1 X117.595 Y159.520 E0.05693
G1 X115.714 Y159.804 E0.05963
G1 X113.831 Y159.991 E0.05934
G1 X112.027 Y160.080 E0.05664
G1 X110.211 Y160.081 E0.05693
G1 X108.311 Y159.987 E0.05964
G1 X106.428 Y159.797 E0.05934
G1 X104.633 Y159.525 E0.05693
G1 X102.862 Y159.168 E0.05665
G1 X100.991 Y158.691 E0.06053
G1 X99.265 Y158.158 E0.05664
G1 X97.559 Y157.539 E0.05691
G1 X95.850 Y156.821 E0.05812
G1 X94.144 Y156.001 E0.05935
G1 X92.475 Y155.091 E0.05961
G1 X90.795 Y154.055 E0.06189
G1 X89.361 Y153.075 E0.05444
G1 X87.885 Y151.955 E0.05811
G1 X86.502 Y150.793 E0.05664
G1 X85.170 Y149.559 E0.05693
G1 X83.827 Y148.184 E0.06025
G1 X82.583 Y146.771 E0.05904
G1 X81.452 Y145.350 E0.05693
G1 X80.391 Y143.876 E0.05694
G1 X79.344 Y142.254 E0.06052
G1 X78.442 Y140.689 E0.05664
G1 X77.613 Y139.074 E0.05692
G1 X76.838 Y137.360 E0.05899
G1 X76.167 Y135.652 E0.05753
G1 X75.580 Y133.913 E0.05755
G1 X75.073 Y132.119 E0.05845
G1 X74.656 Y130.298 E0.05858
G1 X74.321 Y128.373 E0.06127
G1 X74.100 Y126.627 E0.05515
G1 X73.961 Y124.788 E0.05784
G1 X73.914 Y122.931 E0.05823
G1 X73.914 Y53.769 E2.16852
G1 X74.237 Y52.526 E0.04027
M73 P1 R97
G1 X74.698 Y51.722 E0.02907
G1 X75.351 Y51.056 E0.02923
G1 X75.447 Y36.978 E0.44142
G1 X75.682 Y36.323 E0.02184
G1 X76.016 Y35.705 E0.02201
G1 X76.918 Y34.713 E0.04204
G1 X77.984 Y34.059 E0.03923
G1 X79.067 Y33.770 E0.03513
G1 X89.654 Y33.758 E0.33196
G1 X89.701 Y34.132 F10800.000
G1 F1200.000
G1 X97.802 Y34.126 E0.25399
G1 X97.819 Y33.849 E0.00870
G1 X98.018 Y33.074 E0.02508
G1 X98.246 Y32.653 E0.01502
G1 X98.476 Y32.230 F10800.000
G1 F1200.000
G1 X98.510 Y32.168 E0.00222
G1 X99.217 Y31.422 E0.03224
G1 X99.925 Y30.934 E0.02696
G1 X101.281 Y30.528 E0.04439
G1 X137.208 Y30.531 E1.12646
G1 X138.109 Y30.731 E0.02893
G1 X138.940 Y31.149 E0.02916
G1 X139.857 Y32.036 E0.03999
G1 X140.142 Y32.447 F10800.000
G1 F1200.000
G1 X140.519 Y33.158 E0.02524
G1 X140.732 Y34.125 E0.03105
G1 X155.305 Y34.125 E0.45691
;WIPE_START
G1 F8640.000
G1 X152.013 Y34.125 E-0.76000
;WIPE_END
G1 E-0.04000 F2100.000
G1 Z0.600 F10800.000
G1 X158.731 Y34.125
G1 Z0.200
G1 E0.80000 F2100.000
G1 F1200.000
G1 X171.645 Y34.125 E0.40491
G1 X172.689 Y34.390 E0.03376
G1 X173.355 Y34.733 E0.02348
G1 X174.535 Y35.913 E0.05234
G1 X174.878 Y36.579 E0.02348
G1 X175.142 Y37.623 E0.03377
G1 X175.135 Y52.174 E0.45624
G1 X175.386 Y52.608 E0.01571
G1 X175.709 Y53.784 E0.03826
G1 X175.709 Y77.303 E0.73741
G1 X175.687 Y78.159 E0.02684
G1 X175.618 Y79.062 E0.02840
G1 X175.509 Y79.945 E0.02792
G1 X175.350 Y80.851 E0.02884
G1 X175.161 Y81.682 E0.02672
G1 X174.937 Y82.495 E0.02644
G1 X174.659 Y83.340 E0.02790
G1 X174.344 Y84.163 E0.02764
G1 X173.976 Y84.997 E0.02856
G1 X173.567 Y85.812 E0.02859
G1 X173.115 Y86.609 E0.02874
G1 X172.608 Y87.402 E0.02952
G1 X172.115 Y88.100 E0.02678
G1 X171.590 Y88.772 E0.02677
G1 X170.989 Y89.468 E0.02883
G1 X170.373 Y90.113 E0.02795
G1 X169.741 Y90.714 E0.02736
G1 X168.870 Y91.449 E0.03571
G1 X168.132 Y92.006 F10800.000
G1 F1200.000
G1 X167.619 Y92.367 E0.01968
G1 X166.882 Y92.833 E0.02732
G1 X166.124 Y93.263 E0.02734
G1 X165.311 Y93.673 E0.02854
G1 X164.513 Y94.026 E0.02735
G1 X163.700 Y94.341 E0.02735
G1 X162.826 Y94.631 E0.02886
G1 X161.834 Y94.893 E0.03220
G1 X161.801 Y98.706 E0.11956
G1 X161.402 Y99.891 E0.03920
G1 X160.636 Y100.912 E0.04003
G1 X160.327 Y101.172 E0.01264
G1 X159.231 Y101.783 E0.03934
G1 X157.695 Y102.122 E0.04933
G1 X156.235 Y102.105 E0.04578
G1 X156.227 Y103.301 E0.03747
G1 X155.876 Y104.508 E0.03941
G1 X155.610 Y104.972 E0.01680
G1 X154.837 Y105.869 E0.03710
G1 X154.600 Y106.037 E0.00912
G1 X154.942 Y106.997 E0.03194
G1 X155.104 Y108.270 E0.04023
G1 X155.093 Y108.972 E0.02202
G1 X154.911 Y110.213 E0.03932
G1 X154.365 Y111.679 E0.04905
G1 X153.511 Y112.985 E0.04892
G1 X152.150 Y114.237 E0.05799
G1 X150.545 Y115.072 E0.05672
G1 X148.914 Y115.455 E0.05252
G1 X147.909 Y115.445 E0.03151
G1 X147.909 Y122.953 E0.23541
